src/assets/css3.svg

<svg xmlns="http://www.w3.org/2000/svg" xmlns:xlink="http://www.w3.org/1999/xlink" viewBox="0,0,256,256" width="480px" height="480px"><g transform="translate(-25.6,-25.6) scale(1.2,1.2)"><g fill="none" fill-rule="nonzero" stroke="none" stroke-width="1" stroke-linecap="butt" stroke-linejoin="miter" stroke-miterlimit="10" stroke-dasharray="" stroke-dashoffset="0" font-family="none" font-weight="none" font-size="none" text-anchor="none" style="mix-blend-mode: normal"><g transform="scale(5.33333,5.33333)"><path d="M41,5h-34l3,34l14,4l14,-4l3,-34z" fill="#0277bd"></path><path d="M24,8v31.9l11.2,-3.2l2.5,-28.7z" fill="#039be5"></path><path d="M33.1,13h-9.1v4h4.9l-0.3,4h-4.6v4h4.4l-0.3,4.5l-4.1,1.4v4.2l7.9,-2.6l0.7,-11.5v0z" fill="#ffffff"></path><path d="M24,13v4h-8.9l-0.3,-4zM19.4,21l0.2,4h4.4v-4zM19.8,27h-4l0.3,5.5l7.9,2.6v-4.2l-4.1,-1.4z" fill="#eeeeee"></path></g></g></g></svg>

<svg xmlns="http://www.w3.org/2000/svg"  viewBox="0 0 48 48" width="500px" height="500px"><path fill="#0277BD" d="M41,5H7l3,34l14,4l14-4L41,5L41,5z"/><path fill="#039BE5" d="M24 8L24 39.9 35.2 36.7 37.7 8z"/><path fill="#FFF" d="M33.1 13L24 13 24 17 28.9 17 28.6 21 24 21 24 25 28.4 25 28.1 29.5 24 30.9 24 35.1 31.9 32.5 32.6 21 32.6 21z"/><path fill="#EEE" d="M24,13v4h-8.9l-0.3-4H24z M19.4,21l0.2,4H24v-4H19.4z M19.8,27h-4l0.3,5.5l7.9,2.6v-4.2l-4.1-1.4L19.8,27z"/></svg>
